templates/main/source/images/header-compare-active.svg

<svg width="24" height="24" viewBox="0 0 24 24" xmlns:xlink="http://www.w3.org/1999/xlink" xmlns="http://www.w3.org/2000/svg"><g id="shopping-cart"><g id="compare" stroke="none"><path d="M0 0h24v24H0V0z" id="Rectangle-5" fill="none"/><path d="M0 0h16v2H0V0zm16 6H0v2h16V6zm-4 6v-2h2v2h2v2h-2v2h-2v-2h-2v-2h2zm-4 0H0v2h8v-2z" transform="translate(4 4)" id="Shape" fill="#8C0014" fill-rule="evenodd"/></g></g></svg>

<?xml version="1.0" encoding="utf-8"?>
<svg width="24px" height="24px" viewBox="0 0 24 24" version="1.1" xmlns:xlink="http://www.w3.org/1999/xlink" xmlns="http://www.w3.org/2000/svg">
  <desc>Created with Lunacy</desc>
  <g id="shopping-cart">
    <g id="compare">
      <path d="M0 0L24 0L24 24L0 24L0 0Z" id="Rectangle-5" fill="none" stroke="none" />
      <path d="M0 0L16 0L16 2L0 2L0 0ZM16 6L0 6L0 8L16 8L16 6ZM12 12L12 10L14 10L14 12L16 12L16 14L14 14L14 16L12 16L12 14L10 14L10 12L12 12ZM8 12L0 12L0 14L8 14L8 12Z" transform="translate(4 4)" id="Shape" fill="#8C0014" fill-rule="evenodd" stroke="none" />
    </g>
  </g>
</svg>
